X:320
T:Wren Hornpipe, The 
B:CRE2.314 (Cornphiopa an Dreoilin)
F:file ID: cre.2/320wren
M:4/4
L:1/8
Q:150
R:hornpipe
K:G
D2|(3EFG AB cBcd|(3efg ed cBcd|ecAc BAGB|AGEF GEDG|
(3EFG AB cBcd|(3efg ed cBcd|ecAc BAGB|A2AG A2:|
(3efg|a2ag efge|dedc Bcdf|ecAc BAGB|AGEF GED2|
a2ag efge|dedc Bcde|eAAc BAGB|A2AA A2 (3efg|
a2ag efge|dedc Bcde|ecAc BAGB|AGEF GEDG|
(3EFG AB cBcd|(3efg ed cBcd|ecAc BAGB|A2AG A4|]

%%%

